X:1
T:Venite sodales
T:Chiara Margarita Cozzolani
T:1602-c.1677
T:Source: Museo internazionale e biblioteca della musica - Catalogo Gaspari.htm
T:Venite sodales
T:Salmi a Otto Voci concertati (Venice, 1650)
T:WJ Looyestijn - 2016 - May be freely copied for non-commercial use.
T:WJ Looyestijn - 2016 - May be freely copied for non-commercial use.
T:WJ Looyestijn - 2016 - May be freely copied for non-commercial use.
T:WJ Looyestijn - 2016 - May be freely copied for non-commercial use.
T:WJ Looyestijn - 2016 - May be freely copied for non-commercial use.
T:WJ Looyestijn - 2016 - May be freely copied for non-commercial use.
T:WJ Looyestijn - 2016 - May be freely copied for non-commercial use.
T:WJ Looyestijn - 2016 - May be freely copied for non-commercial use.
T:WJ Looyestijn - 2016 - May be freely copied for non-commercial use.
T:WJ Looyestijn - 2016 - May be freely copied for non-commercial use.
T:WJ Looyestijn - 2016 - May be freely copied for non-commercial use.
T:WJ Looyestijn - 2016 - May be freely copied for non-commercial use.
T:WJ Looyestijn - 2016 - May be freely copied for non-commercial use.
T:WJ Looyestijn - 2016 - May be freely copied for non-commercial use.
T:WJ Looyestijn - 2016 - May be freely copied for non-commercial use.
T:WJ Looyestijn - 2016 - May be freely copied for non-commercial use.
T:WJ Looyestijn - 2016 - May be freely copied for non-commercial use.
T:WJ Looyestijn - 2016 - May be freely copied for non-commercial use.
C:Chiara Margarita Cozzolani
Z:WJ Looyestijn - 2016 - May be freely copied for non-commercial use.
%%score [ 1 2 3 4 ]
L:1/8
Q:1/4=120
M:4/4
K:C
V:1 alto nm="Alto" snm="A"
V:2 tenor nm="Tenore" snm="T"
V:3 bass nm="Basso" snm="B"
V:4 bass nm="Bass" snm="B"
V:1
 x8 | x8 | x8 |[M:4/4][Q:1/4=120][Q:1/4=120][Q:1/4=120][Q:1/4=120] z8 | z8 | %5
w: |||||
[M:3/2][Q:1/4=240][Q:1/4=240][Q:1/4=240][Q:1/4=240] z12 | z12 | z12 | z12 | z12 | z12 | z12 | z12 | %13
w: ||||||||
 z12 | z12 | z12 | z12 | z12 | z12 | z12 | z12 | z12 | z12 | z12 | z12 | z12 | z12 | z12 | z12 | %29
w: ||||||||||||||||
 z12 | z12 | z12 | z12 | z12 | z12 | z12 | z12 | %37
w: ||||||||
[M:4/4][Q:1/4=80][Q:1/4=80][Q:1/4=80][Q:1/4=80] z2 AE F3/2 E/4D/4 C2 | z2 AE F3/2 E/4D/4 C2 | %39
w: Quis est is- te, * *|quis est is- te, * *|
 z2 DD C/_B,/C/D/ CD/C/ | _B,/A,/B,/C/ B,C/B,/ A,A,/A,/ AA | G/F/G/A/ GA/G/ F/E/F/G/ FG/F/ | %42
w: et lau- da- * * * * * *|* * * * * * * * bi- mus, et lau-|da- * * * * * * * * * * * * *|
 EE/E/ FC D2 DF | F3 E F4 || z8 | z8 | z8 | z8 | z8 | z8 | z8 | z8 | %52
w: * bi- mus, et lau- da- bi- mus|e- um. *|||||||||
[M:3/2][Q:1/4=300][Q:1/4=300][Q:1/4=300][Q:1/4=300] z4 z4 F4 | E6 E2 E4 | z4 z4 F4 | E6 E2 D4 | %56
w: Mi-|ra- bi- lis,|mi-|ra- bi- lis|
[Q:1/4=240][Q:1/4=240][Q:1/4=240][Q:1/4=240] E4 E4 E4 | %57
w: De- us, mi-|
[M:4/4][Q:1/4=80][Q:1/4=80][Q:1/4=80][Q:1/4=80] F>E DD E/F/E/D/ CB,/C/ | DC B,2 A,4 | z4 z2 z ^F | %60
w: ra- bi- lis in san- * * * * * *|* ctis su- is,|mi-|
 ^G>G G2 z2 z E | F>E DD E/F/E/D/ CB,/C/ | D/E/D/C/ B,A,/B,/ C/D/C/B,/ A,C | B,4 A,4 | %64
w: ra- bi- lis, mi-|ra- bi- lis in san- * * * * * *|* * * * * * * * * * * * ctis|su- is.|
[M:3/2][Q:1/4=360][Q:1/4=360][Q:1/4=360][Q:1/4=360] z12 | z12 | z4 A4 E4 | F6 E2 F2 G2 | E4 E4 z4 | %69
w: ||Col- lau-|de- * * *|* mus,|
 z12 | z4 z4 G3 F | E4 C2 D2 E2 C2 | F4 F4 F3 E | D8 D4 | ^C2 B,2 C2 A,2 D4 | D4 D6 ^C2 | D8 z4 || %77
w: |glo- ri-|o- * * * *|* sum, glo- ri-|o- sum|N.N. * * * *|||
 z4 z4 F4 | E6 D2 C4 | E4 D2 C2 B,2 C2 | C6 B,2 A,4 | C4 D2 C2 D2 E2 | F6 E2 D4 | F4 E2 F2 G2 A2 | %84
w: O|flos- cu- le|be- a- * te, *|flos- cu- le|di- vi- * ni *|nu- mi- nis|quam pul- * cher *|
 F8 z4 | z4 z4 C4 | C6 B,2 A,4 | C4 D2 C2 D2 E2 | F6 E2 D4 | D4 G2 F2 E2 D2 | ^C6 B,2 A,4 | %91
w: es,|qui|Do- mi- ni|le- gem * ser- *|va- ve- rit|non ti- * bi *|si- mi- lis|
 D4 D6 ^C2 | D8 z4 | D4 G2 F2 E2 D2 | ^C6 B,2 A,4 | D4 D6 ^C2 | D8 z4 || z12"^Ritornello" | z12 | %99
w: in- ven- tus|est,|non ti- * bi *|si- mi- lis|in- ven- tus|est.|||
 z12 | z12 | z12 | z12 | z12 | z12 | z12 | z12 | z12 | z12 || z12 | z12 | z12 | z12 | z12 | z12 | %115
w: ||||||||||||||||
 z12 | z12 | z12 | z12 | z12 | z12 | z12 | z12 | z12 | z12 | z12 | z12 | z12 | z12 || %129
w: ||||||||||||||
"^Ritornello" z12 | z12 | z12 | z12 | z12 | z12 | z12 | z12 | z12 | z12 | z12 | z12 || z4 z4 F4 | %142
w: ||||||||||||In|
 E6 D2 C4 | E4 D2 C2 B,2 C2 | C6 B,2 A,4 | C4 D2 C2 D2 E2 | F6 E2 D4 | F4 E2 F2 G2 A2 | F8 z4 | %149
w: Do- mi- no|sem- per * glo- *|ria- be- ris,|sem- per * lau- *|da- be- ris|ab an- * ge- *|lis,|
 z4 z4 C4 | C6 B,2 A,4 | C4 D2 C2 D2 E2 | F6 E2 D4 | D4 G2 F2 E2 D2 | ^C6 B,2 A,4 | D4 D6 ^C2 | %156
w: in|Do- mi- no|sem- per * læ- *|ta- be- ris,|sem- per * be- *|a- be- ris,|o fe- lix|
 D8 z4 | D4 G2 F2 E2 D2 | ^C6 B,2 A,4 | D4 D6 ^C2 | D8 z4 | %161
w: sors,|sem- per * be- *|a- be- ris|o fe- lix|sors.|
[M:4/4][Q:1/4=80][Q:1/4=80][Q:1/4=80][Q:1/4=80] z2 B,>C D4- | D4 D4 | D2 DD EE z E/E/ | %164
w: Er- * *|* go,|er- go læ- tan- tes, ex- ul-|
 ^FF z2 A,2 A,A, | B,B, z B,/B,/ ^CC z2 |[M:3/2][Q:1/4=360][Q:1/4=360][Q:1/4=360][Q:1/4=360] z12 | %167
w: tan- tes, er- go læ-|tan- tes, ex- ul- tan- tes.||
 z12 | z4 A4 E4 | F6 E2 F2 G2 | E4 E4 z4 | z12 | z4 z4 G3 F | E4 C2 D2 E2 C2 | F4 F4 F3 E | D8 D4 | %176
w: |Col- lau-|de- * * *|* mus,||ser- vum|Chris- * * * *|* ti, ser- vum|Chris- ti|
 ^C2 B,2 C2 A,2 D4 | D4 D6 ^C2 | D8 z4 || z4 z4 A4 | _B4 A6 G2 | F4 D4 D4 | D4 D6 ^C2 | D4 D4 F4 | %184
w: glo- * * * *|ri- o- *|sum.|Can-|te- mus fes-|ti- ve, can-|te- mus fes-|ti- ve, can-|
 F4 F6 E2 | D4 D4 z4 | z12 | z4 z4 C4 | C4 C6 B,2 | A,4 A,4 z4 | z12 | z12 | A,2 A,2 ^C2 C2 E2 E2 | %193
w: te- mus fes-|ti- ve,||can-|te- mus fes-|ti- ve.|||Vi- ve, vi- ve, vi- ve,|
 ^C4 A,4 E2 E2 | F2 E2 F2 E2 D2 C2 | B,4 A,4 F2 E2 | D2 C2 B,4 A,4 | z12 | z12 | %199
w: vi- ve, vi- ve,|vi- ve in æ- ter- num,|vi- ve, vi- ve|in æ- ter- num,|||
 D2 D2 ^F2 F2 A2 A2 | ^F4 D4 D2 D2 | E2 D2 E2 D2 C2 B,2 | A,4 G,4 E2 D2 | C2 B,2 A,4 G,4 | z12 | %205
w: vi- ve, vi- ve in æ-|ter- num, vi- ve,|vi- ve in æ- ter- num,|vi- ve, vi- ve|in æ- ter- num,||
 z12 | C2 C2 E2 E2 G2 G2 | E4 C4 E2 E2 | F2 E2 F2 E2 D2 C2 | B,4 A,4 F2 E2 | D2 C2 B,4 A,4 | %211
w: |vi- ve, vi- ve in æ-|ter- num, vi- ve,|vi- ve in æ- ter- num,|vi- ve, vi- ve|in æ- ter- num,|
 C6 C2 B,4 | A,2 C4 C2 B,4 | A,2 F4 F2 E4 | D2 F4 F2 E4 | D2 F4 F2 E4 | D4 z4 z4 |] %217
w: vi- ve, vi-|ve, vi- ve, vi-|ve, vi- ve, vi-|ve, vi- ve, vi-|ve, vi- ve, vi-|ve.|
V:2
 x8 | x8 | x8 |[M:4/4] z2 A,2 D4- | D2 EF ^C2 A,2 |[M:3/2] z4 z4 E4 | F4 E4 D4 | ^C4 A,4 E4 | %8
w: |||Ve- ni-|* te so- da- les,|ve-|ni- te so-|da- les, ve-|
 F4 E4 D4 | ^C4 A,4 z2 D2 | B,4 B,4 z2 E2 | C4 C4 F2 E2 | D4 D4 G2 F2 | E4 E4 z2 C2 | %14
w: ni- te mor-|ta- les, ve-|ni- te mor-|ta- les, ju- bi-|le- mus, ex- ul-|te- mus, ve-|
 A,4 A,4 z2 D2 | B,4 B,4 E2 D2 | C4 C4 F2 E2 | D4 D4 C4 | _B,4 A,4 A,4 | A,8 G,4 | A,8 E,4 | %21
w: ni- te, ve-|ni- te aol- lau-|de- mus, ez- alo-|te- mus ter-|ra- rum ho-|no- rem|* cæ-|
 F,2 E,2 F,2 G,2 A,2 B,2 | C4 C4 G,4 | A,2 G,2 A,2 B,2 C2 D2 | E4 D4 C4 | D4 C4 B,4 | %26
w: lo- * * * * *|* rum, cæ-|lo- * * * * *|* rum a-|mo- * rem|
 C2 B,2 C2 D2 C4 | B,4 B,8 | A,8 A,4 | B,2 A,2 B,2 C2 D2 E2 | F4 F4 ^C4 | D2 ^C2 D2 E2 F2 G2 | %32
w: N.N. * * * *||* cæ-|lo- * * * * *|* rum, cæ-|lo- * * * * *|
 A4 G4 F4 | G4 F4 E4 | F2 E2 F2 G2 F4 | E4 E8 | D8 z4 |[M:4/4] z8 | z8 | z8 | z8 | z8 | z8 | z8 || %44
w: * rum a-|mo- * rem|N.N. * * * *||||||||||
 z2 DE F2 ED | C>C C2 z2 CD | EEDC B,4 | A,4 A,A,B,C | D>D D2 B,B,CD | E>E E2 z2 CC | %50
w: Qui post au- um non|ab- i- jit, nec spe-|ra- vit in the- sau-|ris, fe- cit mi- ra-|bi- li- a, fe- cit mi- ra-|bi- li- a, mi- ra-|
 F>E DD GF FE | E4 D4 |[M:3/2] z4 z4 D4 | ^C6 C2 C4 | z4 z4 D4 | ^C6 C2 D4 | ^C4 C4 z4 | %57
w: bi- li- a in vi- * ta *|su- a.|Mi-|ra- bi- lis,|mi-|ra- bi- lis|De- us,|
[M:4/4] z8 | z2 z B, C>B, A,A, | B,/C/B,/A,/ G,^F,/G,/ A,G, F,2 | E,2 z B, ^C>C CC | %61
w: |mi- ra- bi- lis in|san- * * * * * * * ctis su-|is, mi- ra- bi- lis, mi-|
 D>C B,B, C/D/C/B,/ A,G,/A,/ | B,/C/B,/A,/ G,^F,/G,/ A,/B,/A,/G,/ F,A, | A,3 ^G, A,4 |[M:3/2] z12 | %65
w: ra- bi- lis in san- * * * * * *|* * * * * * * * * * * * ctis|su- * is.||
 z12 | z4 ^C4 C4 | D6 ^C2 D2 E2 | ^C4 C4 z4 | z4 z4 D3 C | B,4 G,2 A,2 B,2 G,2 | C4 C4 C3 B, | %72
w: |Col- lau-|de- * * *|* mus,|glo- ri-|o- * * * *|* sum, glo- ri-|
 A,4 F,2 G,2 A,2 F,2 | _B,4 B,4 G,3 F, | E,4 A,4 F,2 D,2 | G,2 F,2 E,8 | ^F,8 z4 || z12 | z12 | %79
w: o- * * * *|* sum, glo- ri-|o- sum N.N. *|||||
 z12 | z12 | z12 | z12 | z12 | z12 | z12 | z12 | z12 | z12 | z12 | z12 | z12 | z12 | z12 | z12 | %95
w: ||||||||||||||||
 z12 | z12 || z12 | z12 | z12 | z12 | z12 | z12 | z12 | z12 | z12 | z12 | z12 | z12 || z4 z4 F4 | %110
w: ||||||||||||||Tu|
 E6 D2 C4 | E4 D2 C2 B,2 C2 | C6 B,2 A,4 | C4 D2 C2 D2 E2 | F6 E2 D4 | F4 E2 F2 G2 A2 | F8 z4 | %117
w: can- di- dus,|tu ni- * ve *|pu- ri- or|et si- * ne *|ma- cu- la|in- ven- * tus *|es,|
 z4 z4 C4 | C6 B,2 A,4 | C4 D2 C2 D2 E2 | F6 E2 D4 | D4 G2 F2 E2 D2 | ^C6 B,2 A,4 | D4 D6 ^C2 | %124
w: in|sæ- cu- la|flo- re- * bis *|Do- mi- no|quod ger- * mi- *|na- ve- ris|ut li- li-|
 D8 z4 | D4 G2 F2 E2 D2 | ^C6 B,2 A,4 | D4 D6 ^C2 | D8 z4 || z12 | z12 | z12 | z12 | z12 | z12 | %135
w: um,|quod ger- * mi- *|na- ve- ris|ut li- li-|um.|||||||
 z12 | z12 | z12 | z12 | z12 | z12 || z4 z4 D4 | C6 B,2 A,4 | C4 B,2 A,2 ^G,2 A,2 | A,6 B,2 C4 | %145
w: ||||||In|Do- mi- no|sem- per * glo- *|ria- be- ris,|
 A,4 B,2 A,2 B,2 C2 | D6 C2 _B,4 | A,4 G,2 A,2 _B,2 C2 | A,8 z4 | z4 z4 G,4 | A,6 G,2 F,4 | %151
w: sem- per * lau- *|da- be- ris|ab an- * ge- *|lis,|in|Do- mi- no|
 A,4 B,2 A,2 B,2 C2 | D6 C2 D4 | _B,4 B,4 B,4 | A,6 G,2 A,4 | G,2 F,2 E,6 D,2 | D,8 z4 | %157
w: sem- per * læ- *|ta- be- ris,|sem- per be-|a- be- ris,|o * fe- lix|sors,|
 _B,4 B,4 B,4 | A,6 G,2 A,4 | G,2 F,2 E,6 D,2 | D,8 z4 |[M:4/4] z2 G,>A, B,4- | B,4 B,4 | %163
w: sem- per be-|a- be- ris|o * fe- lix|sors.|Er- * *|* go,|
 B,2 B,D DD z ^C/C/ | DD z2 ^F,2 F,A, | A,A, z ^G,/G,/ A,A, z2 |[M:3/2] z12 | z12 | z4 ^C4 C4 | %169
w: er- go læ- tan- tes, ex- ul-|tan- tes, er- go læ-|tan- tes, ex- ul- tan- tes.|||Col- lau-|
 D6 ^C2 D2 E2 | ^C4 C4 z4 | z4 z4 D3 C | B,4 G,2 A,2 B,2 G,2 | C4 C4 C3 B, | A,4 F,G,A,F, _B,4 | %175
w: de- * * *|* mus,|ser- vum|Chris- * * * *|* ti, ser- vum|Chris- * * * * *|
 _B,4 G,3 F, E,4 | A,4 F,2 D,2 G,4 | F,4 E,8 | ^F,8 z4 || z12 | z12 | z4 z4 A,4 | _B,4 A,6 G,2 | %183
w: ti, ser- vum Chris-|ti glo- * ri-|* o-|sum.|||Can-|te- mus fes-|
 F,4 D,4 D4 | D4 D6 ^C2 | D4 D4 C4 | C4 C6 B,2 | A,4 A,4 A,4 | A,4 A,6 ^G,2 | A,4 A,4 z4 | z12 | %191
w: ti- ve, can-|te- mus fes-|ti- ve, can-|te- mus fes-|ti- ve, can-|te- mus fes-|ti- ve.||
 A,2 A,2 ^C2 C2 E2 E2 | ^C4 A,4 z4 | z4 z4 ^C2 C2 | D2 E2 D2 ^C2 B,2 A,2 | ^G,4 A,4 A,2 C2 | %196
w: Vi- ve, vi- ve, vi- ve,|vi- ve,|vi- ve,|vi- ve in æ- ter- num,|vi- ve, vi- ve|
 B,2 A,2 ^G,4 A,4 | z12 | D,2 D,2 ^F,2 F,2 A,2 A,2 | ^F,4 D,4 z4 | z4 z4 B,2 B,2 | %201
w: in æ- ter- num,||vi- ve, vi- ve in æ-|ter- num,|vi- ve,|
 C2 D2 C2 B,2 A,2 G,2 | ^F,4 G,4 G,2 B,2 | A,2 G,2 ^F,4 G,4 | z12 | C2 C2 E2 E2 G2 G2 | E4 C4 z4 | %207
w: vi- ve in æ- ter- num,|vi- ve, vi- ve|in æ- ter- num,||vi- ve, vi- ve in æ-|ter- num,|
 z4 z4 ^C2 C2 | D2 E2 D2 ^C2 B,2 A,2 | ^G,4 A,4 A,2 C2 | B,2 A,2 ^G,4 A,4 | A,6 A,2 ^G,4 | %212
w: vi- ve,|vi- ve in æ- ter- num,|vi- ve, vi- ve|in æ- ter- num,|vi- ve, vi-|
 A,2 A,4 A,2 ^G,4 | A,2 D4 D2 ^C4 | D2 D4 D2 ^C4 | D2 D4 D2 ^C4 | D4 z4 z4 |] %217
w: ve, vi- ve, vi-|ve, vi- ve, vi-|ve, vi- ve, vi-|ve, vi- ve, vi-|ve.|
V:3
 x8 | x8 | x8 |[M:4/4] z8 | z8 |[M:3/2] z12 | z12 | z12 | z12 | z12 | z12 | z12 | z12 | z12 | z12 | %15
w: |||||||||||||||
 z12 | z12 | z12 | z12 | z12 | z12 | z12 | z12 | z12 | z12 | z12 | z12 | z12 | z12 | z12 | z12 | %31
w: ||||||||||||||||
 z12 | z12 | z12 | z12 | z12 | z12 |[M:4/4] z2 F,C, D,3/2 C,/4_B,,/4 A,,2 | %38
w: ||||||Quis est is- te, * *|
 z2 F,C, D,3/2 C,/4_B,,/4 A,,2 | z2 _B,,B,, A,,/G,,/A,,/B,,/ A,,B,,/_A,,/ | %40
w: quis est is- te, * *|et lau- da- * * * * * *|
 G,,/F,,/G,,/A,,/ G,,A,,/G,,/ F,,F,,/F,,/ F,F, | E,/D,/E,/F,/ E,F,/E,/ D,/C,/D,/E,/ D,E,/D,/ | %42
w: * * * * * * * * bi- mus, et lau-|da- * * * * * * * * * * * * *|
 C,C,/C,/ A,,A,, _B,,2 B,,F,, | C,4 F,,4 || z8 | z8 | z8 | z8 | z8 | z8 | z8 | z8 | %52
w: * bi- mus, et lau- da- bi- mus|e- um.|||||||||
[M:3/2] z4 z4 D,4 | A,6 A,2 A,4 | z4 z4 D,4 | A,6 A,2 _B,4 | A,4 A,4 z4 |[M:4/4] z8 | %58
w: Mi-|ra- bi- lis,|mi-|ra- bi- lis|De- us,||
 z2 z ^G, A,>=G, ^F,F, | G,/A,/G,/^F,/ E,^D,/E,/ F,E, B,,2 | E,2 z ^G, A,>A, A,2 | %61
w: mi- ra- bi- lis in|san- * * * * * * * ctis su-|is, mi- ra- bi- lis,|
 z D, G,>F, E,E, F,/G,/F,/E,/ | D,C,/D,/ E,/F,/E,/D,/ C,B,,/C,/ D,A,, | E,4 A,,4 | %64
w: mi- ra- bi- lis in san- * * *|* * * * * * * * * * * ctis|su- is.|
[M:3/2] z4 A,4 E,4 | F,6 E,2 F,2 G,2 | E,4 E,4 z4 | z12 | z4 z4 A,3 G, | ^F,4 D,2 E,2 F,2 D,2 | %70
w: Col- lau-|de- * * *|* mus,||glo- ri-|o- * * * *|
 G,4 G,4 E,3 D, | C,4 A,,2 B,,2 C,2 A,,2 | D,4 D,4 D,3 C, | _B,,4 G,,2 A,,2 B,,2 G,,2 | %74
w: * sum, glo- ri-|o- * * * *|* sum, glo- ri-|o- * * * *|
 A,,4 A,,4 _B,,4 | G,,4 A,,8 | D,,8 z4 || z12 | z12 | z12 | z12 | z12 | z12 | z12 | z12 | z12 | %86
w: * sum N.N.||||||||||||
 z12 | z12 | z12 | z12 | z12 | z12 | z12 | z12 | z12 | z12 | z12 || z12 | z12 | z12 | z12 | z12 | %102
w: ||||||||||||||||
 z12 | z12 | z12 | z12 | z12 | z12 | z12 || z12 | z12 | z12 | z12 | z12 | z12 | z12 | z12 | z12 | %118
w: ||||||||||||||||
 z12 | z12 | z12 | z12 | z12 | z12 | z12 | z12 | z12 | z12 | z12 || z12 | z12 | z12 | z12 | z12 | %134
w: ||||||||||||||||
 z12 | z12 | z12 | z12 | z12 | z12 | z12 || z12 | z12 | z12 | z12 | z12 | z12 | z12 | z12 | z12 | %150
w: ||||||||||||||||
 z12 | z12 | z12 | z12 | z12 | z12 | z12 | z12 | z12 | z12 | z12 |[M:4/4] z4 G,4- | G,4 G,4 | %163
w: |||||||||||Er-|* go,|
 G,2 G,^F, E,E, z A,/A,/ | D,D, z2 D,2 D,^C, | B,,B,, z E,/E,/ A,,A,, z2 |[M:3/2] z4 A,4 E,4 | %167
w: er- go læ- tan- tes, ex- ul-|tan- tes, er- go læ-|tan- tes, ex- ul- tan- tes.|Col- lau-|
 F,6 E,2 F,2 G,2 | E,4 E,4 z4 | z12 | z4 z4 A,3 G, | ^F,4 D,2 E,2 F,2 D,2 | G,4 G,4 E,3 D, | %173
w: de- * * *|* mus,||ser- vum|Chris- * * * *|* ti, ser- vum|
 C,4 A,,2 B,,2 C,2 A,,2 | D,4 D,4 D,3 C, | _B,,4 G,,2 A,,2 B,,2 G,,2 | A,,4 A,,4 _B,,4 | %177
w: Chris- * * * *|* ti, ser- vum|Chris- * * * *|* ti glo-|
 G,,4 A,,8 | D,,8 z4 || z12 | z12 | z12 | z12 | z4 z4 A,4 | _B,4 A,6 G,2 | F,4 D,4 A,4 | %186
w: ri- o-|sum.|||||can-|te- mus fes-|ti- ve, can-|
 A,4 A,6 ^G,2 | A,4 A,4 F,4 | D,4 E,6 E,2 | A,,4 A,,4 z4 | A,,2 A,,2 ^C,2 C,2 C,2 C,2 | %191
w: te- mus fes-|ti- ve, can-|te- mus fes-|ti- ve.|Vi- ve, vi- ve, vi- ve,|
 ^C,4 A,,4 z4 | z12 | z4 z4 A,,2 A,,2 | D,2 ^C,2 D,2 E,2 F,2 D,2 | E,4 A,,4 D,2 E,2 | %196
w: vi- ve,||vi- ve|in æ- ter- num, vi- ve,|vi- ve, vi- ve|
 F,2 D,2 E,4 A,,4 | D,2 D,2 ^F,2 F,2 A,2 A,2 | ^F,4 D,4 z4 | z12 | z4 z4 G,,2 G,,2 | %201
w: in æ- ter- num,|vi- ve, vi- ve in æ-|ter- num,||vi- ve,|
 C,2 B,,2 C,2 D,2 E,2 C,2 | D,4 G,,4 C,2 D,2 | E,2 C,2 D,4 G,,4 | C,2 C,2 E,2 E,2 G,2 G,2 | %205
w: vi- ve in æ- ter- num,|vi- ve, vi- ve|in æ- ter- num,|vi- ve, vi- ve in æ-|
 E,4 C,4 z4 | z12 | z4 z4 A,,2 A,,2 | D,2 ^C,2 D,2 E,2 F,2 D,2 | E,4 A,,4 D,2 E,2 | %210
w: ter- num,||vi- ve,|vi- ve in æ- ter- num,|vi- ve, vi- ve|
 F,2 D,2 E,4 A,,4 | F,6 D,2 E,4 | A,,2 F,4 D,2 E,4 | A,,2 _B,,4 G,,2 A,,4 | D,2 _B,,4 G,,2 A,,4 | %215
w: in æ- ter- num,|vi- ve, vi-|ve, vi- ve, vi-|ve, vi- ve, vi-|ve, vi- ve, vi-|
 D,2 _B,,4 G,,2 A,,4 | D,4 z4 z4 |] %217
w: ve, vi- ve, vi-|ve.|
V:4
 x8 | x8 | x8 |[M:4/4] D,6 C,2 | _B,,2 G,,2 A,,4 |[M:3/2] A,,8 A,,4 | D,4 C,4 _B,,4 | A,,8 A,,4 | %8
w: ||||||||
 D,4 C,4 _B,,4 | A,,8 ^F,,4 | G,,8 E,,4 | A,,8 F,,4 | _B,,8 G,,4 | C,8 C,4 | F,,8 D,,4 | %15
w: |||||||
 G,,8 E,,4 | A,,8 F,,4 | _B,,8 A,,4 | G,,4 A,,8 | B,,12 | A,,8 A,,4 | D,8 D,4 | C,8 C,4 | F,8 F,4 | %24
w: ||||7``````````6|||||
 E,8 A,4 | D,8 E,4 | A,,4 B,,4 C,4 | D,4 E,8 | A,,8 F,,4 | G,,8 G,,4 | D,8 A,,4 | _B,,8 B,,4 | %32
w: ||||||||
 A,,8 D,4 | G,,8 A,,4 | D,,4 E,,4 F,,4 | G,,4 A,,8 | D,,8 x4 |[M:4/4] F,3 C, D,2 A,,2 | %38
w: ||||||
 F,,3 C, D,2 A,,2 | _B,,4 A,,4 | G,,4 F,,2 F,2 | E,4 D,4 | C,2 A,,2 _B,,3 F,, | C,4 F,,4 || D,8 | %45
w: |||||4``````3 *||
 A,,4 A,,4 | C,2 D,2 E,4 | A,,4 A,2 G,2 | ^F,4 G,2 =F,2 | E,4 A,,4 | D,2 _B,,2 G,,4 | A,,4 D,,4 | %52
w: |||||||
[M:3/2] z4 z4 D,4 | A,8 A,4 | z4 z4 D,4 | A,8 _B,4 | A,8 A,,4 |[M:4/4] D,2 G,,2 C,2 F,2 | %58
w: |||||z * * *|
 D,2 E,2 A,,2 D,2 | B,,2 C,2 A,,2 B,,2 | E,4 A,,4 | D,2 G,2 E,2 F,2 | D,2 E,2 C,2 D,A,, | %63
w: * * z *|* * x`6 *||z * * *|6 * 6 x *|
 E,4 A,,4 |[M:3/2] A,,12 | D,12 | A,,12 | D,12 | A,,8 A,4 | D,8 D,4 | G,8 E,4 | C,4 A,,8 | %72
w: 4````````3 *|||||||||
 D,8 D,4 | _B,,4 G,,8 | A,,8 _B,,4 | G,,4 A,,8 | D,,12 || z4 z4 D,4 | A,,4 A,,8 | C,4 D,4 E,4 | %80
w: ||||||||
 A,,8 A,,4 | A,4 G,4 E,4 | D,6 C,2 _B,,4 | A,,4 C,8 | F,,12 | F,8 E,4 | F,8 F,4 | F,8 E,4 | %88
w: |||||||5``````6 *|
 D,8 D,4 | _B,,4 G,,8 | A,,8 F,,4 | G,,4 A,,8 | D,,12 | _B,,4 G,,8 | A,,8 F,,4 | G,,4 A,,8 | %96
w: ||x *|* 4```````3|||x *|* 4``````3|
 D,,12 || D,4 C,4 B,,4 | A,,12 | C,4 B,,4 A,,4 | E,8 E,4 | D,4 E,8 | A,,12 | F,4 E,4 D,4 | C,12 | %105
w: |||||||||
 G,4 F,4 E,4 | D,8 D,4 | G,,4 A,,8 | D,,8 z4 || z4 z4 D,4 | A,,8 A,,4 | C,4 D,4 E,4 | A,,8 A,,4 | %113
w: ||||||||
 A,4 G,4 E,4 | D,6 C,2 _B,,4 | A,,4 C,8 | F,,12 | F,8 E,4 | F,8 F,4 | F,8 E,4 | D,8 D,4 | %121
w: ||||||5````6 *||
 _B,,4 G,,8 | A,,8 F,,4 | G,,4 A,,8 | D,,12 | _B,,4 G,,8 | A,,8 F,,4 | G,,4 A,,8 | D,,12 || %129
w: |x *||||x *|||
 D,4 C,4 B,,4 | A,,12 | C,4 B,,4 A,,4 | E,8 E,4 | D,4 E,8 | A,,12 | F,4 E,4 D,4 | C,12 | %137
w: ||||||||
 G,4 F,4 E,4 | D,8 D,4 | G,,4 A,,8 | D,,8 z4 || z4 z4 D,4 | A,,8 A,,4 | A,,4 D,4 E,4 | A,,8 A,,4 | %145
w: z * *||||||* 6 *||
 A,4 G,4 E,4 | D,8 G,4 | F,4 C,8 | F,,12 | F,8 E,4 | F,8 F,4 | F,8 E,4 | D,6 C,2 _B,,4 | %153
w: |z z|||||3`````4 *||
 G,,8 G,,4 | A,,8 F,,4 | G,,4 A,,8 | D,,12 | G,,8 G,,4 | A,,8 F,,4 | G,,4 A,,8 | D,,12 | %161
w: |x *|* 4``````3||z *|x *|* 4``````3||
[M:4/4] G,,8- | G,,4 G,,4 | G,2 G,^F, E,2 A,2 | D,2 z2 D,2 D,^C, | B,,2 E,2 A,,2 z2 | %166
w: ||* * * 7 *||7 * *|
[M:3/2] A,,12 | D,12 | A,,12 | D,12 | A,,8 A,4 | ^F,4 D,8 | G,8 E,4 | C,4 A,,8 | D,8 D,4 | %175
w: |||||||* z||
 _B,,4 G,,8 | A,,8 _B,,4 | G,,4 A,,8 | D,,12 || D,8 D,4 | G,,4 A,,8 | D,8 D,4 | G,,4 A,,8 | %183
w: |||||z *|z *|z *|
 D,8 D,4 | G,,4 A,,8 | D,8 F,4 | D,4 E,8 | A,,8 F,4 | D,4 E,8 | A,,8 z4 | A,,8 A,,4 | A,,8 A,,4 | %192
w: z *|z *||7 ^4```````%3||7 ^4```````%3||||
 A,,8 A,,4 | A,,8 A,,4 | D,2 ^C,2 D,2 E,2 F,2 D,2 | E,4 A,,4 D,2 E,2 | F,2 D,2 E,4 A,,4 | D,8 D,4 | %198
w: ||* * * * * 7||* 7 * *||
 D,8 D,4 | D,8 D,4 | D,8 G,,4 | C,2 B,,2 C,2 D,2 E,2 C,2 | D,4 G,,4 C,2 D,2 | E,2 C,2 D,4 G,,4 | %204
w: |||* * * * * 7||* 7 * *|
 C,8 C,4 | C,8 C,4 | C,8 C,4 | C,8 A,,4 | D,2 ^C,2 D,2 E,2 F,2 D,2 | E,4 A,,4 D,2 E,2 | %210
w: |||* x|* * * * * 7||
 F,2 D,2 E,4 A,,4 | F,6 D,2 E,4 | A,,2 F,4 D,2 E,4 | A,,2 _B,,4 G,,2 A,,4 | D,2 _B,,4 G,,2 A,,4 | %215
w: * 7 * *|* 7 *|* * 7 *|* * 7 *|* * 7 *|
 D,2 _B,,4 G,,2 A,,4 | D,4 z4 z4 |] %217
w: * * 7 *||

